synths/iXMR.svg

<svg width="480" height="480" viewBox="0 0 480 480" fill="none" xmlns="http://www.w3.org/2000/svg"><mask id="mask0-478344" maskUnits="userSpaceOnUse" x="0" y="0" width="480" height="480"><circle cx="240" cy="240" r="240" fill="url(#paint0_linear-177773)"/></mask><g mask="url(#mask0-478344)"><circle cx="240" cy="240" r="240" fill="#FF1E39"/><circle cx="240" cy="240" r="208" fill="#fff"/></g><circle cx="240" cy="240" r="184" fill="#0E052F"/><path d="M240 424c101.62 0 184-82.38 184-184S341.62 56 240 56 56 138.38 56 240s82.38 184 184 184z" fill="#F60"/><path d="M239.652 116.203c68.828 0 124.488 55.66 124.488 124.476a127.307 127.307 0 01-6.417 39.468h-37.099V175.566l-80.96 80.96-80.96-80.96v104.581h-37.111a127.33 127.33 0 01-6.405-39.468c0-68.816 55.66-124.476 124.476-124.476h-.012zm-18.537 158.528l18.883 18.572 18.549-18.561 35.086-35.42v65.78h52.291a124.272 124.272 0 01-106.26 59.708c-44.873 0-84.341-23.943-106.26-59.708h52.279v-65.78l35.42 35.42.012-.011z" fill="#fff"/><defs><linearGradient id="paint0_linear-177773" x1="240" y1="0" x2="240" y2="701.818" gradientUnits="userSpaceOnUse"><stop stop-color="#08021E"/><stop offset="1" stop-color="#1F0777"/></linearGradient></defs></svg>

<svg width="480" height="480" viewBox="0 0 480 480" fill="none" xmlns="http://www.w3.org/2000/svg">
<mask id="mask0-478344" mask-type="alpha" maskUnits="userSpaceOnUse" x="0" y="0" width="480" height="480">
<circle cx="240" cy="240" r="240" fill="url(#paint0_linear-177773)"/>
</mask>
<g mask="url(#mask0-478344)">
<circle cx="240" cy="240" r="240" fill="#FF1E39"/>
<circle cx="240" cy="240" r="208" fill="white"/>
</g>
<circle cx="240" cy="240" r="184" fill="#0E052F"/>
<path d="M240 424C341.62 424 424 341.62 424 240C424 138.38 341.62 56 240 56C138.38 56 56 138.38 56 240C56 341.62 138.38 424 240 424Z" fill="#FF6600"/>
<path d="M239.652 116.203C308.48 116.203 364.14 171.863 364.14 240.679C364.093 254.091 361.928 267.411 357.723 280.147H320.624V175.566L239.664 256.526L158.704 175.566V280.147H121.593C117.393 267.411 115.231 254.09 115.188 240.679C115.188 171.863 170.848 116.203 239.664 116.203H239.652ZM221.115 274.731L239.998 293.303L258.547 274.742L293.633 239.322V305.102H345.924C334.833 323.344 319.229 338.42 300.617 348.879C282.005 359.337 261.013 364.824 239.664 364.81C194.791 364.81 155.323 340.867 133.404 305.102H185.683V239.322L221.103 274.742L221.115 274.731Z" fill="white"/>
<defs>
<linearGradient id="paint0_linear-177773" x1="240" y1="0" x2="240" y2="701.818" gradientUnits="userSpaceOnUse">
<stop stop-color="#08021E"/>
<stop offset="1" stop-color="#1F0777"/>
</linearGradient>
</defs>
</svg>
